setscrunch 0.5 0.5
rt 270
pu
fd 1000
rt 270
fd 400
rt 270
pd
window
fd 1400
rt 180
fd 1800
rt 180
fd 450
rt 90
fd 150
rt 180
fd 450
rt 180
fd 300
rt 180
rt 90
setpensize 5
pd
fd 1
pu
rt -45
setpensize 1
pd
fd 40
rt 45
setpensize 5
fd 1
setpensize 1
setpensize 5
pd
fd 1
pu
rt 0
setpensize 1
pd
fd 40
rt 0
setpensize 5
fd 1
setpensize 1
setpensize 5
pd
fd 1
pu
rt -45
setpensize 1
pd
fd 40
rt 45
setpensize 5
fd 1
setpensize 1
setpensize 5
pd
fd 1
pu
rt 0
setpensize 1
pd
fd 40
rt 0
setpensize 5
fd 1
setpensize 1
setpensize 5
pd
fd 1
pu
rt -71
setpensize 1
pd
fd 40
rt 71
setpensize 5
fd 1
setpensize 1
setpensize 5
pd
fd 1
pu
rt 0
setpensize 1
pd
fd 40
rt 0
setpensize 5
fd 1
setpensize 1
setpensize 5
pd
fd 1
pu
rt -86
setpensize 1
pd
fd 40
rt 86
setpensize 5
fd 1
setpensize 1
setpensize 5
pd
fd 1
pu
rt -71
setpensize 1
pd
fd 40
rt 71
setpensize 5
fd 1
setpensize 1
setpensize 5
pd
fd 1
pu
rt -89
setpensize 1
pd
fd 40
rt 89
setpensize 5
fd 1
setpensize 1
setpensize 5
pd
fd 1
pu
rt -87
setpensize 1
pd
fd 40
rt 87
setpensize 5
fd 1
setpensize 1
setpensize 5
pd
fd 1
pu
rt -89
setpensize 1
pd
fd 40
rt 89
setpensize 5
fd 1
setpensize 1
setpensize 5
pd
fd 1
pu
rt -89
setpensize 1
pd
fd 40
rt 89
setpensize 5
fd 1
setpensize 1
setpensize 5
pd
fd 1
pu
rt -89
setpensize 1
pd
fd 40
rt 89
setpensize 5
fd 1
setpensize 1
setpensize 5
pd
fd 1
pu
rt -89
setpensize 1
pd
fd 40
rt 89
setpensize 5
fd 1
setpensize 1
setpensize 5
pd
fd 1
pu
rt -89
setpensize 1
pd
fd 40
rt 89
setpensize 5
fd 1
setpensize 1
setpensize 5
pd
fd 1
pu
rt -89
setpensize 1
pd
fd 40
rt 89
setpensize 5
fd 1
setpensize 1
setpensize 5
pd
fd 1
pu
rt -89
setpensize 1
pd
fd 40
rt 89
setpensize 5
fd 1
setpensize 1
setpensize 5
pd
fd 1
pu
rt -89
setpensize 1
pd
fd 40
rt 89
setpensize 5
fd 1
setpensize 1
setpensize 5
pd
fd 1
pu
rt -89
setpensize 1
pd
fd 40
rt 89
setpensize 5
fd 1
setpensize 1
setpensize 5
pd
fd 1
pu
rt -89
setpensize 1
pd
fd 40
rt 89
setpensize 5
fd 1
setpensize 1
setpensize 5
pd
fd 1
pu
rt -89
setpensize 1
pd
fd 40
rt 89
setpensize 5
fd 1
setpensize 1
setpensize 5
pd
fd 1
pu
rt -89
setpensize 1
pd
fd 40
rt 89
setpensize 5
fd 1
setpensize 1
setpensize 5
pd
fd 1
pu
rt -89
setpensize 1
pd
fd 40
rt 89
setpensize 5
fd 1
setpensize 1
setpensize 5
pd
fd 1
pu
rt -89
setpensize 1
pd
fd 40
rt 89
setpensize 5
fd 1
setpensize 1
setpensize 5
pd
fd 1
pu
rt -89
setpensize 1
pd
fd 40
rt 89
setpensize 5
fd 1
setpensize 1
setpensize 5
pd
fd 1
pu
rt -89
setpensize 1
pd
fd 40
rt 89
setpensize 5
fd 1
setpensize 1
setpensize 5
pd
fd 1
pu
rt -89
setpensize 1
pd
fd 40
rt 89
setpensize 5
fd 1
setpensize 1
setpensize 5
pd
fd 1
pu
rt -89
setpensize 1
pd
fd 40
rt 89
setpensize 5
fd 1
setpensize 1
setpensize 5
pd
fd 1
pu
rt -89
setpensize 1
pd
fd 40
rt 89
setpensize 5
fd 1
setpensize 1
setpensize 5
pd
fd 1
pu
rt -89
setpensize 1
pd
fd 40
rt 89
setpensize 5
fd 1
setpensize 1
setpensize 5
pd
fd 1
pu
rt -89
setpensize 1
pd
fd 40
rt 89
setpensize 5
fd 1
setpensize 1
setpensize 5
pd
fd 1
pu
rt -89
setpensize 1
pd
fd 40
rt 89
setpensize 5
fd 1
setpensize 1
setpensize 5
pd
fd 1
pu
rt -89
setpensize 1
pd
fd 40
rt 89
setpensize 5
fd 1
setpensize 1
setpensize 5
pd
fd 1
pu
rt -89
setpensize 1
pd
fd 40
rt 89
setpensize 5
fd 1
setpensize 1
setpensize 5
pd
fd 1
pu
rt -89
setpensize 1
pd
fd 40
rt 89
setpensize 5
fd 1
setpensize 1
setpensize 5
pd
fd 1
pu
rt -89
setpensize 1
pd
fd 40
rt 89
setpensize 5
fd 1
setpensize 1
setpensize 5
pd
fd 1
pu
rt -90
setpensize 1
pd
fd 40
rt 90
setpensize 5
fd 1
setpensize 1
setpensize 5
pd
fd 1
pu
rt -90
setpensize 1
pd
fd 40
rt 90
setpensize 5
fd 1
setpensize 1
setpensize 5
pd
fd 1
pu
rt -90
setpensize 1
pd
fd 40
rt 90
setpensize 5
fd 1
setpensize 1
setpensize 5
pd
fd 1
pu
rt -90
setpensize 1
pd
fd 40
rt 90
setpensize 5
fd 1
setpensize 1
setpensize 5
pd
fd 1
pu
rt -90
setpensize 1
pd
fd 40
rt 90
setpensize 5
fd 1
setpensize 1
setpensize 5
pd
fd 1
pu
rt -90
setpensize 1
pd
fd 40
rt 90
setpensize 5
fd 1
setpensize 1
setpensize 5
pd
fd 1
pu
rt -90
setpensize 1
pd
fd 40
rt 90
setpensize 5
fd 1
setpensize 1
setpensize 5
pd
fd 1
pu
rt -90
setpensize 1
pd
fd 40
rt 90
setpensize 5
fd 1
setpensize 1
setpensize 5
pd
fd 1
pu
rt -90
setpensize 1
pd
fd 40
rt 90
setpensize 5
fd 1
setpensize 1
setpensize 5
pd
fd 1
pu
rt -90
setpensize 1
pd
fd 40
rt 90
setpensize 5
fd 1
setpensize 1
setpensize 5
pd
fd 1
pu
rt -90
setpensize 1
pd
fd 40
rt 90
setpensize 5
fd 1
setpensize 1
setpensize 5
pd
fd 1
pu
rt -90
setpensize 1
pd
fd 40
rt 90
setpensize 5
fd 1
setpensize 1
setpensize 5
pd
fd 1
pu
rt -90
setpensize 1
pd
fd 40
rt 90
setpensize 5
fd 1
setpensize 1
setpensize 5
pd
fd 1
pu
rt -90
setpensize 1
pd
fd 40
rt 90
setpensize 5
fd 1
setpensize 1
setpensize 5
pd
fd 1
pu
rt -90
setpensize 1
pd
fd 40
rt 90
setpensize 5
fd 1
setpensize 1
setpensize 5
pd
fd 1
pu
rt -90
setpensize 1
pd
fd 40
rt 90
setpensize 5
fd 1
setpensize 1
setpensize 5
pd
fd 1
pu
rt -90
setpensize 1
pd
fd 40
rt 90
setpensize 5
fd 1
setpensize 1
setpensize 5
pd
fd 1
pu
rt -90
setpensize 1
pd
fd 40
rt 90
setpensize 5
fd 1
setpensize 1
setpensize 5
pd
fd 1
pu
rt -90
setpensize 1
pd
fd 40
rt 90
setpensize 5
fd 1
setpensize 1
setpensize 5
pd
fd 1
pu
rt -90
setpensize 1
pd
fd 40
rt 90
setpensize 5
fd 1
setpensize 1
setpensize 5
pd
fd 1
pu
rt -90
setpensize 1
pd
fd 40
rt 90
setpensize 5
fd 1
setpensize 1
setpensize 5
pd
fd 1
pu
rt -90
setpensize 1
pd
fd 40
rt 90
setpensize 5
fd 1
setpensize 1
setpensize 5
pd
fd 1
pu
rt -90
setpensize 1
pd
fd 40
rt 90
setpensize 5
fd 1
setpensize 1
setpensize 5
pd
fd 1
pu
rt -90
setpensize 1
pd
fd 40
rt 90
setpensize 5
fd 1
setpensize 1
setpensize 5
pd
fd 1
pu
rt -90
setpensize 1
pd
fd 40
rt 90
setpensize 5
fd 1
setpensize 1
setpensize 5
pd
fd 1
pu
rt -90
setpensize 1
pd
fd 40
rt 90
setpensize 5
fd 1
setpensize 1
setpensize 5
pd
fd 1
pu
rt -90
setpensize 1
pd
fd 40
rt 90
setpensize 5
fd 1
setpensize 1
setpensize 5
pd
fd 1
pu
rt -90
setpensize 1
pd
fd 40
rt 90
setpensize 5
fd 1
setpensize 1
setpensize 5
pd
fd 1
pu
rt -90
setpensize 1
pd
fd 40
rt 90
setpensize 5
fd 1
setpensize 1
setpensize 5
pd
fd 1
pu
rt -90
setpensize 1
pd
fd 40
rt 90
setpensize 5
fd 1
setpensize 1
setpensize 5
pd
fd 1
pu
rt -90
setpensize 1
pd
fd 40
rt 90
setpensize 5
fd 1
setpensize 1
setpensize 5
pd
fd 1
pu
rt -90
setpensize 1
pd
fd 40
rt 90
setpensize 5
fd 1
setpensize 1
setpensize 5
pd
fd 1
pu
rt -90
setpensize 1
pd
fd 40
rt 90
setpensize 5
fd 1
setpensize 1
setpensize 5
pd
fd 1
pu
rt -90
setpensize 1
pd
fd 40
rt 90
setpensize 5
fd 1
setpensize 1
setpensize 5
pd
fd 1
pu
rt -90
setpensize 1
pd
fd 40
rt 90
setpensize 5
fd 1
setpensize 1
setpensize 5
pd
fd 1
pu
rt -90
setpensize 1
pd
fd 40
rt 90
setpensize 5
fd 1
setpensize 1
setpensize 5
pd
fd 1
pu
rt -90
setpensize 1
pd
fd 40
rt 90
setpensize 5
fd 1
setpensize 1
setpensize 5
pd
fd 1
pu
rt -90
setpensize 1
pd
fd 40
rt 90
setpensize 5
fd 1
setpensize 1
setpensize 5
pd
fd 1
pu
rt -90
setpensize 1
pd
fd 40
rt 90
setpensize 5
fd 1
setpensize 1
setpensize 5
pd
fd 1
pu
rt -90
setpensize 1
pd
fd 40
rt 90
setpensize 5
fd 1
setpensize 1
setpensize 5
pd
fd 1
pu
rt -90
setpensize 1
pd
fd 40
rt 90
setpensize 5
fd 1
setpensize 1
setpensize 5
pd
fd 1
pu
rt -90
setpensize 1
pd
fd 40
rt 90
setpensize 5
fd 1
setpensize 1
setpensize 5
pd
fd 1
pu
rt -90
setpensize 1
pd
fd 40
rt 90
setpensize 5
fd 1
setpensize 1
setpensize 5
pd
fd 1
pu
rt 90
setpensize 1
pd
fd 40
rt -90
setpensize 5
fd 1
setpensize 1
setpensize 5
pd
fd 1
pu
rt -90
setpensize 1
pd
fd 40
rt 90
setpensize 5
fd 1
setpensize 1
setpensize 5
pd
fd 1
pu
rt 90
setpensize 1
pd
fd 40
rt -90
setpensize 5
fd 1
setpensize 1
setpensize 5
pd
fd 1
pu
rt -90
setpensize 1
pd
fd 40
rt 90
setpensize 5
fd 1
setpensize 1
setpensize 5
pd
fd 1
pu
rt 90
setpensize 1
pd
fd 40
rt -90
setpensize 5
fd 1
setpensize 1
setpensize 5
pd
fd 1
pu
rt -90
setpensize 1
pd
fd 40
rt 90
setpensize 5
fd 1
setpensize 1
setpensize 5
pd
fd 1
pu
rt 90
setpensize 1
pd
fd 40
rt -90
setpensize 5
fd 1
setpensize 1
setpensize 5
pd
fd 1
pu
rt -90
setpensize 1
pd
fd 40
rt 90
setpensize 5
fd 1
setpensize 1
setpensize 5
pd
fd 1
pu
rt 90
setpensize 1
pd
fd 40
rt -90
setpensize 5
fd 1
setpensize 1
setpensize 5
pd
fd 1
pu
rt -90
setpensize 1
pd
fd 40
rt 90
setpensize 5
fd 1
setpensize 1
setpensize 5
pd
fd 1
pu
rt 90
setpensize 1
pd
fd 40
rt -90
setpensize 5
fd 1
setpensize 1
setpensize 5
pd
fd 1
pu
rt -90
setpensize 1
pd
fd 40
rt 90
setpensize 5
fd 1
setpensize 1
setpensize 5
pd
fd 1
pu
rt 90
setpensize 1
pd
fd 40
rt -90
setpensize 5
fd 1
setpensize 1
setpensize 5
pd
fd 1
pu
rt -90
setpensize 1
pd
fd 40
rt 90
setpensize 5
fd 1
setpensize 1
setpensize 5
pd
fd 1
pu
rt 90
setpensize 1
pd
fd 40
rt -90
setpensize 5
fd 1
setpensize 1
setpensize 5
pd
fd 1
pu
rt -90
setpensize 1
pd
fd 40
rt 90
setpensize 5
fd 1
setpensize 1
setpensize 5
pd
fd 1
pu
rt 90
setpensize 1
pd
fd 40
rt -90
setpensize 5
fd 1
setpensize 1
setpensize 5
pd
fd 1
pu
rt -90
setpensize 1
pd
fd 40
rt 90
setpensize 5
fd 1
setpensize 1
setpensize 5
pd
fd 1
pu
rt 90
setpensize 1
pd
fd 40
rt -90
setpensize 5
fd 1
setpensize 1
setpensize 5
pd
fd 1
pu
rt -90
setpensize 1
pd
fd 40
rt 90
setpensize 5
fd 1
setpensize 1
setpensize 5
pd
fd 1
pu
rt -90
setpensize 1
pd
fd 40
rt 90
setpensize 5
fd 1
setpensize 1
